X:1
T:Rimsky-Korsakov Harmonic Exercises, The Pedal.
T:Rimsky-Korsakov Harmonic Exercises, The Pedal.
T:"Practical Manual of Harmony" (1885)
T:                                  The use of modulations above the pedal. In C major above the dominant pedal use modulations into the keys d, e, F, f, G, a. In C major above the tonic pedal use modulations into the keys f, F, g, a, B♭, b♭, d. In a minor above the dominant pedal use modulations into the keys E, d. In a minor above the tonic pedal use modulations into the keys d, g. 
%%score { ( 1 2 3 ) | ( 4 5 ) }
L:1/8
Q:1/2=120
M:19/1
K:C
V:1 treble nm="Piano" snm="Pno."
V:2 treble 
V:3 treble 
V:4 bass 
V:5 bass 
V:1
"""^Example by Rimsky-Korsakov (voice-leading for 3 voices):""_C:""_F:""_{" (G8 (c8) (c8)"""_F:""_C:""_{" (f8)"" (=B8)"" (c8)"" (A8)"" (c8)"" (c8)"" (B8)"" (c8)"" (c8)"" (c8)"""_C:""_d:""_{" (d8) (d8) (^c8)"""_d:""_C:""_{"[Q:1/2=120] (d8)""[Q:1/2=85]"^.1" (G8)""[Q:1/2=56]"^.6" !breath!G8) |] %1
[M:4/4]"""^Example 1 by Rimsky-Korsakov (chord inversion marking only takes into account the top 3 voices):""_C:"[Q:1/4=70] (G2"" (A2)"""_C:""_G:""_{" (G2) (c2) | %2
"""_G:""_a:""_{" (B2)"" (d2)"""_a:""_d:""_{" (c2) (^c2) | %3
"""_d:""_F:""_{" (d2)"" =c2)"""_F:""_C:""_{" c4- |"""_C:""_G:""_{" (c2"" (A2)"""_G:""_C:""_{" B4) | %5
"""_C:""_d:""_{" (c2"" (^c2)"""_d:""_F:""_{" (d2) (e2) | %6
"""_F:""_{""_b♭:" (f2)"" (c2)"" (f2)"" (_e2) | %7
"""_b♭:""_F:""_{" (_d2) c2)"""_F:""_C:""_{" (c2""[Q:1/4=70] (=B2) | %8
""""""[Q:1/4=64]"^.2" !breath!c8)[Q:1/4=55][Q:1/4=44] |] %9
[M:3/4]""[Q:1/4=70]"^Example 2 by Rimsky-Korsakov:""_a:""_E:""_{" c2 (c2"""_E:""_a:""_{" (B2) | %10
"" (c2)"" (f2)"""_a:""_d:""_{" (e2) | (g2)"""""_d:""_a:""_{" f4-) |"" (f2"" (e2)"" (d2) | %13
"""_a:" (c2)"" (^G2)"""_a:""_d:""_{" (A2) | (_B2) (A2)"""_d:""_g:""_{" (d2) | %15
"" (c2)"""_g:""_d:""_{" _B2)[Q:1/8=140] (B2 | %16
""[Q:1/8=129]"^.8""_d:""_a:""_{" (A2)""""[Q:1/8=108] (^G2)[Q:1/8=93]""[Q:1/8=5] !breath!!fermata!A2) |] %17
[M:2/2]""[Q:1/2=70]"^Example 3 by Rimsky-Korsakov (the pedal in the middle voice):""_C:" (E4"" (D4) | %18
"" (G4)"""_10" (A4) |"" (G4)"" (B4) |"" (c4)"" (d4) |"""_C:""_F:""_{" (e4) (g4) | %22
 (c4)[Q:1/4=140]"_♭" (_d4) | %23
""[Q:1/4=126]"^.8""_F:""_C:""_{" (c4)""""[Q:1/4=109]"^.8" (f4)[Q:1/4=100] | %24
""[Q:1/4=91] !fermata!e8) |] %25
""[Q:1/2=70]"^Example 4 by Rimsky-Korsakov (double pedal, hypothetical roman numeral analysis):""_C:""_d:""_{" (E4 (E4) | %26
"""_d:""_C:""_{" (F4)"" (_A4) |"" (G4)"" (B4) |"""_C:""_f:""_{" (c4) (_B4) | %29
"""_f:""_C:""_{" (_A4)"" (G4) |"""_C:""_F:""_{" (G4)[Q:1/2=70] (_B4) | %31
"""_F:""_C:""_{"[Q:1/2=60] (=A4)""[Q:1/2=51]"^.9" (=B4) |""[Q:1/2=44]"^.3" c8) |] %33
V:2
"" E8"" _B8"" A8"" A8 G8 G8 F8 G8 F8 F8 E8 G8 A8"" F8"" G8"" A4"" G4"" F8 F8 E8 |] %1
[M:4/4] E2 F2"" E2"" D2- |"" D2 F2"""" E4 |"" F2 E2"" F2"" D2 |"" E2 D2"""" D4 |"" E4"" F2"" _B2 | %6
"" A4 _B2 A2 |"" F2"" =E2"" F2 D2 | E2"^.4" F2"^.8" E4 |][M:3/4]"" E2"" ^D2"" E2- | E2 ^G2"" A2 | %11
"" _B2"" A4- | A2 ^G4 | A2"" E4- |"" E2"""" F4 | ^F2"" G2"" =E2 |"" =F2 E"^.8"D ^C2 |] %17
[M:2/2] C4 B,4 | C4 B,4 | C4 F4 | E4 G4 |"" G4"" _B4 |"" A4"" _B4 |"" A4 _A2"^.6" G2 | G8 |] %25
"" C4"" ^C4 |"" D4 C4 | B,4 F4 |"""" E8 |"" F8 |"""" E8 |"" F8 | E8 |] %33
V:3
 C8 E8 F8 F8 F8 E8 F8 E8 D8 D8 C8 E8 F8 D8 _B,8 A,8 D8 =B,8 C8 |][M:4/4] x8 | x8 | x8 | x8 | x8 | %6
 x8 | x8 | x8 |][M:3/4] x6 | x6 | x6 | x6 | x6 | x6 | x6 | x6 |][M:2/2] x8 | x8 | x8 | x8 | x8 | %22
 x8 | x8 | x8 |] x8 | x8 | x8 | x8 | x8 | x8 | x8 | x8 |] %33
V:4
 z152 |][M:4/4] C6 ^F,2 | G,2 ^G,2 A,4- | A,2 _B,2 A,2 _A,2 | G,2 ^F,2 G,2 =F,2 | %5
 E,2 _B,2 A,2 G,2 | F,2 _E2 _D2 C2 | _B,4 A,2 _A,2 | G,2 _A,2 G,4 |][M:3/4] A,2 ^F,2 ^G,2 | %10
 A,2 D2 C2 | ^C2 D2 =C2 | B,6 | A,2 B,2 C2 | ^C2 D4 | _E2 D2 ^C2 | D2 =B,2 A,2 |][M:2/2] G,8- | %18
 G,8- | G,8- | G,8 | C8- | C8- | C4 D4 | C8 |] (G,8 | (G,8) | (G,8) | (G,8) | (G,8) | (G,8) | %31
 (G,8) | G,8) |] %33
V:5
 x152 |][M:4/4] (G,,8 | (G,,8) | (G,,8) | G,,8) | (C,8 | (C,8) | (C,8) | C,8) |][M:3/4] (E,,6 | %10
 (E,,6) | (E,,6) | E,,6) | (A,,6 | (A,,6) | (A,,6) | A,,6) |][M:2/2] C,4 D,4 | E,4 F,4 | E,4 D,4 | %20
 C,4 B,,4 | C,4 E,4 | F,4 E,4 | F,4 B,,4 | !fermata!C,8 |] (C,8 | (C,8) | (C,8) | (C,8) | (C,8) | %30
 (C,8) | (C,8) | C,8) |] %33

